src/assets/img/providers/3oaks.svg

<svg width="136" height="24" viewBox="0 0 136 24" fill="none" xmlns="http://www.w3.org/2000/svg">
<mask id="mask0_3926_7419" style="mask-type:luminance" maskUnits="userSpaceOnUse" x="0" y="0" width="136" height="25">
<path d="M135.8 0.000976562H0.200195V24.001H135.8V0.000976562Z" fill="white"/>
</mask>
<g mask="url(#mask0_3926_7419)">
<path fill-rule="evenodd" clip-rule="evenodd" d="M40.8849 0.000976562H48.0936C47.7995 0.251937 47.5602 0.569478 47.4256 1.02018C46.4335 1.06628 45.4364 1.20968 44.4444 1.46064C43.3326 1.74233 42.3655 2.42351 42.3655 3.59637C42.3655 3.97537 42.4652 4.33388 42.6347 4.6463L42.6248 4.40046L42.7743 4.32364C42.9089 4.25193 43.0535 4.19048 43.1931 4.12902C43.552 3.97537 43.9259 3.84732 44.2998 3.73977C46.4933 3.10469 49.7238 3.10469 51.9173 3.73977C52.2913 3.84732 52.6651 3.98049 53.0241 4.12902C53.1637 4.18536 53.3082 4.25193 53.4428 4.32364L53.5924 4.40046L53.5825 4.6463C53.752 4.33388 53.8516 3.97537 53.8516 3.59637C53.8516 2.42351 52.8845 1.73209 51.7727 1.46064C50.7159 1.20456 49.659 1.05091 48.6021 1.01506C48.8215 0.728248 49.1605 0.54387 49.4995 0.364613C49.7138 0.246815 49.9282 0.134139 50.1226 0.000976562H55.3322C56.0402 0.000976562 56.6185 0.595086 56.6185 1.32236V22.6745C56.6185 23.4018 56.0402 23.9959 55.3322 23.9959H40.8849C40.1769 23.9959 39.5987 23.4018 39.5987 22.6745V1.32236C39.5937 0.595086 40.172 0.000976562 40.8849 0.000976562ZM49.1854 10.3979C51.015 9.32749 51.8525 8.09318 51.9572 6.04964C51.2144 8.549 50.1276 9.75769 49.1854 10.3979ZM43.0136 7.202C43.2728 10.7872 47.0417 11.0893 48.1086 13.1175C49.1755 11.0893 52.9443 10.782 53.2036 7.202L53.3232 4.55924C50.7458 3.18152 45.4763 3.18152 42.8989 4.55924L43.0136 7.202Z" fill="#919EAB"/>
<path fill-rule="evenodd" clip-rule="evenodd" d="M21.1851 0.000976562H35.6326C36.3404 0.000976562 36.9187 0.595086 36.9187 1.32236V22.6745C36.9187 23.4018 36.3404 23.9959 35.6326 23.9959H21.1851C20.4772 23.9959 19.8989 23.4018 19.8989 22.6745V1.32236C19.8989 0.595086 20.4772 0.000976562 21.1851 0.000976562ZM29.5654 16.4261C31.3951 15.3556 32.2326 14.1213 32.3372 12.0778C31.5944 14.5771 30.5077 15.7859 29.5654 16.4261ZM23.3189 13.4248C23.5781 17.01 27.347 17.3172 28.4138 19.3403C29.4807 17.3121 33.2495 17.0048 33.5088 13.4248L33.6284 10.782C31.0511 9.40429 25.7816 9.40429 23.2042 10.782L23.3189 13.4248ZM27.7309 7.24298C26.7388 7.28906 25.7417 7.43246 24.7496 7.68344C23.6379 7.96514 22.6707 8.64631 22.6707 9.81913C22.6707 10.1982 22.7705 10.5567 22.94 10.8691L22.93 10.6233L23.0796 10.5465C23.2142 10.4748 23.3587 10.4133 23.4983 10.3518C23.8572 10.1982 24.2312 10.0701 24.6051 9.96253C26.7986 9.3275 30.0291 9.3275 32.2226 9.96253C32.5965 10.0701 32.9704 10.2033 33.3293 10.3518C33.4689 10.4082 33.6135 10.4748 33.7481 10.5465L33.8977 10.6233L33.8877 10.8691C34.0572 10.5567 34.1569 10.1982 34.1569 9.81913C34.1569 8.64631 33.1897 7.95488 32.078 7.68344C31.0211 7.42736 29.9642 7.27369 28.9074 7.23787C29.1268 6.95101 29.4658 6.76664 29.8048 6.58742C30.5525 6.18278 31.2804 5.78843 31.3701 4.65654C29.9842 4.83581 30.6821 4.76922 29.3162 5.63478C28.6581 5.9933 27.9851 6.35696 27.7309 7.24298Z" fill="#919EAB"/>
<path fill-rule="evenodd" clip-rule="evenodd" d="M1.4864 0.000976562H3.56527L3.61512 1.12262C3.87436 4.70776 7.64326 5.00994 8.71012 7.03814C9.77692 5.00994 13.5458 4.70264 13.8051 1.12262L13.8549 0.000976562H15.9338C16.6417 0.000976562 17.22 0.595087 17.22 1.32236V22.6745C17.22 23.4018 16.6417 23.9959 15.9338 23.9959H13.8599L13.9247 22.5772C11.3473 21.1995 6.07786 21.1995 3.50046 22.5772L3.56527 23.9959H1.4864C0.778489 24.001 0.200195 23.4018 0.200195 22.6745V1.32236C0.200195 0.595087 0.778489 0.000976562 1.4864 0.000976562ZM12.6584 0.000976562C11.9256 2.1367 10.9335 3.21737 10.0611 3.80636C11.7212 2.83324 12.5637 1.72185 12.7831 0.000976562H12.6584ZM8.03212 19.0432C7.04002 19.0893 6.04296 19.2327 5.05089 19.4837C3.93917 19.7654 2.97202 20.4466 2.97202 21.6194C2.97202 21.9984 3.07172 22.3569 3.24122 22.6693L3.23125 22.4235L3.38082 22.3467C3.51542 22.275 3.65999 22.2135 3.79958 22.1521C4.15852 21.9984 4.53242 21.8704 4.90632 21.7628C7.09984 21.1278 10.3303 21.1278 12.5238 21.7628C12.8978 21.8704 13.2716 22.0035 13.6306 22.1521C13.7702 22.2084 13.9148 22.275 14.0493 22.3467L14.1989 22.4235L14.189 22.6693C14.3585 22.3569 14.4581 21.9984 14.4581 21.6194C14.4581 20.4466 13.491 19.7551 12.3793 19.4837C11.3224 19.2276 10.2655 19.074 9.2086 19.0381C9.42796 18.7513 9.76696 18.5669 10.106 18.3877C10.8538 17.983 11.5816 17.5887 11.6714 16.4568C10.2855 16.636 10.9834 16.5695 9.61744 17.4351C8.95936 17.7885 8.28634 18.1521 8.03212 19.0432Z" fill="#919EAB"/>
<path fill-rule="evenodd" clip-rule="evenodd" d="M70.5729 13.8028C73.4697 13.8028 75.2493 11.9539 75.2493 9.43916V9.40334C75.2493 6.92444 73.5243 5.97183 71.7597 5.66453L75.0453 2.44302V0.230469H66.2661V2.7452H71.3709L68.2701 5.94621L68.7135 7.81562H69.9003C71.4957 7.81562 72.4425 8.4251 72.4425 9.51086V9.54674C72.4425 10.5403 71.6799 11.1652 70.6029 11.1652C69.2871 11.1652 68.3595 10.5915 67.4673 9.5621L65.5083 11.4981C66.6201 12.8502 68.2353 13.8028 70.5729 13.8028Z" fill="#919EAB"/>
<path fill-rule="evenodd" clip-rule="evenodd" d="M89.7615 13.8038C93.7695 13.8038 96.6813 10.695 96.6813 6.89984V6.86396C96.6813 3.06884 93.8043 0.000976562 89.7963 0.000976562C85.7883 0.000976562 82.8765 3.10981 82.8765 6.89984V6.93566C82.8765 10.7359 85.7535 13.8038 89.7615 13.8038ZM89.7963 11.0944C87.4929 11.0944 85.8627 9.1892 85.8627 6.89984V6.86396C85.8627 4.5746 87.4581 2.71033 89.7615 2.71033C92.0649 2.71033 93.6951 4.61557 93.6951 6.90494V6.94082C93.6951 9.23018 92.0997 11.0944 89.7963 11.0944Z" fill="#919EAB"/>
<path fill-rule="evenodd" clip-rule="evenodd" d="M97.2734 13.572H100.185L101.371 10.5809H106.865L108.051 13.572H111.037L105.479 0.132812H102.842L97.2734 13.572ZM102.398 7.98941L104.123 3.66162L105.848 7.98941H102.398Z" fill="#919EAB"/>
<path fill-rule="evenodd" clip-rule="evenodd" d="M113.047 13.5723H115.908V9.4955L117.409 7.89242L121.437 13.5723H124.867L119.338 5.88988L124.627 0.230469H121.177L115.908 6.06404V0.230469H113.047V13.5723Z" fill="#919EAB"/>
<path fill-rule="evenodd" clip-rule="evenodd" d="M131.029 13.767C133.831 13.767 135.8 12.2818 135.8 9.62874V9.59286C135.8 7.26762 134.315 6.29454 131.683 5.58775C129.439 4.99876 128.881 4.71195 128.881 3.83615V3.79517C128.881 3.14473 129.454 2.63257 130.551 2.63257C131.648 2.63257 132.779 3.12937 133.926 3.94883L135.412 1.73628C134.095 0.65049 132.48 0.0410156 130.586 0.0410156C127.934 0.0410156 126.039 1.64409 126.039 4.0615V4.09735C126.039 6.74526 127.729 7.49298 130.346 8.17932C132.52 8.75292 132.964 9.13194 132.964 9.87456V9.91044C132.964 10.694 132.261 11.1703 131.089 11.1703C129.604 11.1703 128.382 10.5404 127.211 9.55188L125.521 11.6313C127.076 13.0602 129.065 13.767 131.029 13.767Z" fill="#919EAB"/>
<path fill-rule="evenodd" clip-rule="evenodd" d="M68.3576 24.0004C69.35 24.0004 70.1174 23.6009 70.676 23.1143V20.6969H68.318V21.7571H69.5192V22.5509C69.215 22.7763 68.8316 22.8838 68.3978 22.8838C67.4354 22.8838 66.7574 22.1361 66.7574 21.1169V21.1015C66.7574 20.154 67.4456 19.3653 68.3132 19.3653C68.9414 19.3653 69.3153 19.5701 69.7287 19.9286L70.4816 18.9965C69.9182 18.5048 69.3248 18.2334 68.3528 18.2334C66.7124 18.2334 65.5112 19.5292 65.5112 21.1169V21.1322C65.5064 22.7814 66.668 24.0004 68.3576 24.0004Z" fill="#919EAB"/>
<path fill-rule="evenodd" clip-rule="evenodd" d="M78.7983 23.9053H80.0145L80.5083 22.6556H82.8015L83.2953 23.9053H84.5415L82.2183 18.292H81.1167L78.7983 23.9053ZM80.9373 21.575L81.6597 19.767L82.3827 21.575H80.9373Z" fill="#919EAB"/>
<path fill-rule="evenodd" clip-rule="evenodd" d="M92.8325 23.9044H93.9989V20.2885L95.5097 22.6496H95.5445L97.0703 20.268V23.9044H98.2565V18.332H96.9707L95.5445 20.688L94.1189 18.332H92.8325V23.9044Z" fill="#919EAB"/>
<path d="M108.247 18.332H107.056V23.9044H108.247V18.332Z" fill="#919EAB"/>
<path fill-rule="evenodd" clip-rule="evenodd" d="M117.047 23.9044H118.229V20.3602L120.856 23.9044H121.868V18.332H120.692V21.7635L118.149 18.332H117.047V23.9044Z" fill="#919EAB"/>
<path fill-rule="evenodd" clip-rule="evenodd" d="M133.223 24.0004C134.215 24.0004 134.983 23.6009 135.541 23.1143V20.6969H133.183V21.7571H134.385V22.5509C134.08 22.7763 133.696 22.8838 133.262 22.8838C132.301 22.8838 131.617 22.1361 131.617 21.1169V21.1015C131.617 20.154 132.305 19.3653 133.173 19.3653C133.801 19.3653 134.175 19.5701 134.588 19.9286L135.341 18.9965C134.778 18.5048 134.185 18.2334 133.213 18.2334C131.573 18.2334 130.371 19.5292 130.371 21.1169V21.1322C130.371 22.7814 131.537 24.0004 133.223 24.0004Z" fill="#919EAB"/>
</g>
</svg>

<svg width="136" height="24" fill="none" xmlns="http://www.w3.org/2000/svg"><mask id="a" style="mask-type:luminance" maskUnits="userSpaceOnUse" x="0" y="0" width="136" height="25"><path d="M135.8.001H.2v24h135.6v-24Z" fill="#fff"/></mask><g mask="url(#a)" fill="#919EAB"><path fill-rule="evenodd" clip-rule="evenodd" d="M40.885.001h7.209a2.079 2.079 0 0 0-.668 1.02c-.992.045-1.99.189-2.982.44-1.111.281-2.079.963-2.079 2.135 0 .38.1.738.27 1.05l-.01-.246.15-.076c.134-.072.279-.134.418-.195a9.475 9.475 0 0 1 1.107-.39c2.193-.634 5.424-.634 7.617 0 .374.108.748.241 1.107.39.14.056.284.123.419.195l.15.076-.01.246a2.2 2.2 0 0 0 .269-1.05c0-1.172-.967-1.864-2.08-2.135a15.708 15.708 0 0 0-3.17-.446c.22-.287.559-.471.898-.65.214-.118.428-.23.623-.364h5.21c.707 0 1.285.594 1.285 1.321v21.352c0 .728-.578 1.322-1.286 1.322H40.885c-.708 0-1.286-.594-1.286-1.322V1.322c-.005-.727.573-1.321 1.286-1.321Zm8.3 10.397c1.83-1.07 2.667-2.305 2.772-4.348-.743 2.499-1.83 3.708-2.772 4.348Zm-6.171-3.196c.259 3.585 4.028 3.887 5.095 5.915 1.066-2.028 4.835-2.335 5.095-5.915l.12-2.643c-2.578-1.377-7.848-1.377-10.425 0l.115 2.643ZM21.185.001h14.448c.707 0 1.286.594 1.286 1.321v21.352c0 .728-.579 1.322-1.286 1.322H21.185c-.708 0-1.286-.594-1.286-1.322V1.322c0-.727.578-1.321 1.286-1.321Zm8.38 16.425c1.83-1.07 2.668-2.305 2.772-4.348-.743 2.5-1.83 3.708-2.772 4.348Zm-6.246-3.001c.26 3.585 4.028 3.892 5.095 5.915 1.067-2.028 4.835-2.335 5.095-5.915l.12-2.643c-2.578-1.378-7.847-1.378-10.425 0l.115 2.643Zm4.412-6.182c-.992.046-1.99.19-2.981.44-1.112.282-2.08.963-2.08 2.136 0 .38.1.738.27 1.05l-.01-.246.15-.076c.134-.072.279-.134.418-.195a9.49 9.49 0 0 1 1.107-.39c2.194-.634 5.424-.634 7.618 0 .373.108.747.241 1.106.39.14.056.285.123.42.194l.149.077-.01.246a2.2 2.2 0 0 0 .269-1.05c0-1.173-.967-1.864-2.079-2.136a15.707 15.707 0 0 0-3.17-.445c.219-.287.558-.471.897-.65.747-.405 1.475-.8 1.565-1.931-1.386.179-.688.112-2.054.978-.658.358-1.33.722-1.585 1.608ZM1.486.001h2.08l.05 1.122C3.873 4.708 7.642 5.01 8.71 7.038c1.067-2.028 4.836-2.335 5.095-5.915L13.855 0h2.079c.708 0 1.286.594 1.286 1.321v21.352c0 .728-.578 1.322-1.286 1.322H13.86l.065-1.419c-2.578-1.378-7.847-1.378-10.425 0l.065 1.419H1.486C.778 24 .2 23.402.2 22.674V1.322C.2.595.778.001 1.486.001Zm11.172 0c-.732 2.136-1.724 3.216-2.597 3.805 1.66-.973 2.503-2.084 2.722-3.805h-.125ZM8.032 19.043c-.992.046-1.989.19-2.981.44-1.112.282-2.079.964-2.079 2.136 0 .38.1.738.27 1.05l-.01-.245.149-.077c.134-.072.279-.134.419-.195a9.478 9.478 0 0 1 1.106-.39c2.194-.634 5.424-.634 7.618 0 .374.108.748.241 1.107.39.14.056.284.123.418.195l.15.076-.01.246a2.2 2.2 0 0 0 .27-1.05c0-1.172-.968-1.864-2.08-2.135a15.712 15.712 0 0 0-3.17-.446c.219-.287.558-.471.897-.65.748-.405 1.476-.8 1.565-1.931-1.385.179-.688.113-2.054.978-.658.354-1.33.717-1.585 1.608ZM70.573 13.803c2.897 0 4.676-1.85 4.676-4.364v-.036c0-2.479-1.725-3.431-3.49-3.738l3.286-3.222V.23h-8.779v2.515h5.105l-3.1 3.201.442 1.87H69.9c1.596 0 2.542.61 2.542 1.695v.036c0 .993-.762 1.618-1.84 1.618-1.315 0-2.243-.573-3.135-1.603l-1.959 1.936c1.112 1.352 2.727 2.305 5.065 2.305ZM89.761 13.804c4.008 0 6.92-3.109 6.92-6.904v-.036c0-3.795-2.877-6.863-6.885-6.863s-6.92 3.109-6.92 6.899v.036c0 3.8 2.877 6.868 6.885 6.868Zm.035-2.71c-2.303 0-3.933-1.905-3.933-4.194v-.036c0-2.29 1.595-4.154 3.898-4.154 2.304 0 3.934 1.906 3.934 4.195v.036c0 2.29-1.595 4.153-3.899 4.153ZM97.273 13.572h2.912l1.186-2.991h5.494l1.186 2.991h2.986L105.479.132h-2.637l-5.569 13.44Zm5.125-5.583 1.725-4.327 1.725 4.327h-3.45ZM113.047 13.572h2.861V9.496l1.501-1.604 4.028 5.68h3.43l-5.529-7.682 5.289-5.66h-3.45l-5.269 5.834V.23h-2.861v13.342ZM131.029 13.767c2.802 0 4.771-1.485 4.771-4.138v-.036c0-2.325-1.485-3.298-4.117-4.005-2.244-.59-2.802-.876-2.802-1.752v-.04c0-.651.573-1.163 1.67-1.163s2.228.496 3.375 1.316l1.486-2.213C134.095.65 132.48.041 130.586.041c-2.652 0-4.547 1.603-4.547 4.02v.036c0 2.648 1.69 3.396 4.307 4.082 2.174.574 2.618.953 2.618 1.696v.035c0 .784-.703 1.26-1.875 1.26-1.485 0-2.707-.63-3.878-1.618l-1.69 2.08a8.135 8.135 0 0 0 5.508 2.135ZM68.358 24c.992 0 1.76-.4 2.318-.886v-2.417h-2.358v1.06h1.201v.794c-.304.225-.687.333-1.121.333-.963 0-1.64-.748-1.64-1.767v-.015c0-.948.688-1.737 1.555-1.737.628 0 1.002.205 1.416.564l.753-.932c-.564-.492-1.157-.764-2.13-.764-1.64 0-2.84 1.296-2.84 2.884v.015C65.505 22.782 66.667 24 68.357 24ZM78.798 23.905h1.216l.494-1.25h2.294l.493 1.25h1.246l-2.323-5.613h-1.101l-2.319 5.613Zm2.14-2.33.722-1.808.723 1.808h-1.446ZM92.832 23.904H94v-3.616l1.51 2.362h.035l1.526-2.382v3.636h1.187v-5.572H96.97l-1.427 2.356-1.425-2.356h-1.287v5.572Z"/><path d="M108.247 18.332h-1.191v5.572h1.191v-5.572Z"/><path fill-rule="evenodd" clip-rule="evenodd" d="M117.047 23.904h1.182V20.36l2.627 3.544h1.012v-5.572h-1.176v3.431l-2.543-3.431h-1.102v5.572ZM133.223 24c.992 0 1.76-.4 2.318-.886v-2.417h-2.358v1.06h1.202v.794c-.305.225-.689.333-1.123.333-.961 0-1.645-.748-1.645-1.767v-.015c0-.948.688-1.737 1.556-1.737.628 0 1.002.205 1.415.564l.753-.932c-.563-.492-1.156-.764-2.128-.764-1.64 0-2.842 1.296-2.842 2.884v.015c0 1.65 1.166 2.868 2.852 2.868Z"/></g></svg>
